Hatter-kde/actions/24/media-playlist-shuffle.svg

<svg xmlns="http://www.w3.org/2000/svg" viewBox="0 0 24 24">
  <defs id="defs3051">
    <style type="text/css" id="current-color-scheme">
      .ColorScheme-Text {
        color:#363636;
      }
      </style>
  </defs>
 <path style="fill:currentColor;fill-opacity:1;stroke:none" 
     d="M 17 6 L 17 8 L 14 8 C 11.784 8 10 9.784 10 12 C 10 13.662 8.662 15 7 15 L 4 15 L 4 16 L 7 16 C 9.216 16 11 14.216 11 12 C 11 10.338 12.338 9 14 9 L 17 9 L 17 11 L 20 8.5 L 17 6 z M 4 8 L 4 9 L 7 9 C 7.8536128 9 8.6168144 9.3572581 9.1621094 9.9257812 C 9.2578781 9.5814037 9.3956215 9.256835 9.5742188 8.9570312 C 8.8779047 8.3680395 7.9875937 8 7 8 L 4 8 z M 17 13 L 17 15 L 14 15 C 13.146387 15 12.383186 14.642742 11.837891 14.074219 C 11.742121 14.418597 11.604379 14.743165 11.425781 15.042969 C 12.122095 15.631961 13.012406 16 14 16 L 17 16 L 17 18 L 20 15.5 L 17 13 z "
     class="ColorScheme-Text"
     />
</svg>

<?xml version="1.0" encoding="UTF-8"?>
<svg viewBox="0 0 24 24" xmlns="http://www.w3.org/2000/svg">
 <defs id="defs3051">
  <style id="current-color-scheme" type="text/css">.ColorScheme-Text {
        color:#363636;
      }</style>
 </defs>
 <path class="ColorScheme-Text" d="m17 6v2h-3c-2.216 0-4 1.784-4 4 0 1.662-1.338 3-3 3h-3v1h3c2.216 0 4-1.784 4-4 0-1.662 1.338-3 3-3h3v2l3-2.5-3-2.5zm-13 2v1h3c0.85361 0 1.6168 0.35726 2.1621 0.92578 0.095769-0.34438 0.23351-0.66895 0.41211-0.96875-0.69631-0.58899-1.5866-0.95703-2.5742-0.95703h-3zm13 5v2h-3c-0.85361 0-1.6168-0.35726-2.1621-0.92578-0.09577 0.34438-0.23351 0.66895-0.41211 0.96875 0.69631 0.58899 1.5866 0.95703 2.5742 0.95703h3v2l3-2.5-3-2.5z" fill="currentColor"/>
</svg>
